X: 1603
T: Anna Foxe
R: hornpipe
M: 4/4
K: Dmajor
a4|:f2a2 d2cA|BdcB A2Bc|d2cd e2de|f2ga e2dc|cBcd dAcd|
e2ag gfed|1 B2gf e2f^g|a4 b3a:|2 B2g2 fedc|d6 dc||
|:B3c dcBA|G2fe edcA|FAce GBdf|Bdgf fedc|
dcdf A2gf|eaga f2ed|B2g2 fedc|1 d6 dc:|2 d4||

